X:54
T:Morning Dew
M:4/4
L:1/8
R:reel
K:D
|:E3B BAFD|EBEB ADFD|E3B BAFA|1 BcdB ADFA:|2 dcdB ADFA|
|:B2eB fBeB|BcdB ADFA|1 B2eB fBeB|dcdB ADFA:|2 Bdef gfge|dcdB ADFA|
|:BAGF EFGA|BAGB A2GA|1 BAGF EFGA|BcdB ADFA:|2 BAGF GABc|dcdB ADFA||
%%text A variation on the `C' part
B2GB EBGB|B2GB ADFA|B2GB EBGB|BcdB ADFA|
B2GA BEGA|B2GB ADFA|BAGF GABc|dcdB ADFA||
